src/frontend_kids/assets/images/alerts-icon-2.svg

<svg width="42" height="54" viewBox="0 0 42 54" fill="none" xmlns="http://www.w3.org/2000/svg">
<path d="M5.4375 53.0938V49.3281C5.4375 49.0573 5.39323 48.8255 5.30469 48.6328C5.21615 48.4349 5.07812 48.2812 4.89062 48.1719C4.70833 48.0625 4.47135 48.0078 4.17969 48.0078C3.92969 48.0078 3.71354 48.0521 3.53125 48.1406C3.34896 48.224 3.20833 48.3464 3.10938 48.5078C3.01042 48.6641 2.96094 48.849 2.96094 49.0625H0.710938C0.710938 48.7031 0.794271 48.362 0.960938 48.0391C1.1276 47.7161 1.36979 47.4323 1.6875 47.1875C2.00521 46.9375 2.38281 46.7422 2.82031 46.6016C3.26302 46.4609 3.75781 46.3906 4.30469 46.3906C4.96094 46.3906 5.54427 46.5 6.05469 46.7188C6.5651 46.9375 6.96615 47.2656 7.25781 47.7031C7.55469 48.1406 7.70312 48.6875 7.70312 49.3438V52.9609C7.70312 53.4245 7.73177 53.8047 7.78906 54.1016C7.84635 54.3932 7.92969 54.6484 8.03906 54.8672V55H5.76562C5.65625 54.7708 5.57292 54.4844 5.51562 54.1406C5.46354 53.7917 5.4375 53.4427 5.4375 53.0938ZM5.73438 49.8516L5.75 51.125H4.49219C4.19531 51.125 3.9375 51.1589 3.71875 51.2266C3.5 51.2943 3.32031 51.3906 3.17969 51.5156C3.03906 51.6354 2.9349 51.776 2.86719 51.9375C2.80469 52.099 2.77344 52.276 2.77344 52.4688C2.77344 52.6615 2.81771 52.8359 2.90625 52.9922C2.99479 53.1432 3.1224 53.263 3.28906 53.3516C3.45573 53.4349 3.65104 53.4766 3.875 53.4766C4.21354 53.4766 4.50781 53.4089 4.75781 53.2734C5.00781 53.138 5.20052 52.9714 5.33594 52.7734C5.47656 52.5755 5.54948 52.388 5.55469 52.2109L6.14844 53.1641C6.0651 53.3776 5.95052 53.599 5.80469 53.8281C5.66406 54.0573 5.48438 54.2734 5.26562 54.4766C5.04688 54.6745 4.78385 54.8385 4.47656 54.9688C4.16927 55.0938 3.80469 55.1562 3.38281 55.1562C2.84635 55.1562 2.35938 55.0495 1.92188 54.8359C1.48958 54.6172 1.14583 54.3177 0.890625 53.9375C0.640625 53.5521 0.515625 53.1146 0.515625 52.625C0.515625 52.1823 0.598958 51.7891 0.765625 51.4453C0.932292 51.1016 1.17708 50.8125 1.5 50.5781C1.82812 50.3385 2.23698 50.1589 2.72656 50.0391C3.21615 49.9141 3.78385 49.8516 4.42969 49.8516H5.73438ZM11.8125 43V55H9.55469V43H11.8125ZM17.5625 55.1562C16.9062 55.1562 16.3177 55.0521 15.7969 54.8438C15.276 54.6302 14.8333 54.3359 14.4688 53.9609C14.1094 53.5859 13.8333 53.151 13.6406 52.6562C13.4479 52.1562 13.3516 51.625 13.3516 51.0625V50.75C13.3516 50.1094 13.4427 49.5234 13.625 48.9922C13.8073 48.4609 14.0677 48 14.4062 47.6094C14.75 47.2188 15.1667 46.9193 15.6562 46.7109C16.1458 46.4974 16.6979 46.3906 17.3125 46.3906C17.9115 46.3906 18.4427 46.4896 18.9062 46.6875C19.3698 46.8854 19.7578 47.1667 20.0703 47.5312C20.388 47.8958 20.6276 48.3333 20.7891 48.8438C20.9505 49.349 21.0312 49.9115 21.0312 50.5312V51.4688H14.3125V49.9688H18.8203V49.7969C18.8203 49.4844 18.763 49.2057 18.6484 48.9609C18.5391 48.7109 18.3724 48.513 18.1484 48.3672C17.9245 48.2214 17.638 48.1484 17.2891 48.1484C16.9922 48.1484 16.737 48.2135 16.5234 48.3438C16.3099 48.474 16.1354 48.6562 16 48.8906C15.8698 49.125 15.7708 49.401 15.7031 49.7188C15.6406 50.0312 15.6094 50.375 15.6094 50.75V51.0625C15.6094 51.401 15.6562 51.7135 15.75 52C15.849 52.2865 15.987 52.5339 16.1641 52.7422C16.3464 52.9505 16.5651 53.112 16.8203 53.2266C17.0807 53.3411 17.375 53.3984 17.7031 53.3984C18.1094 53.3984 18.487 53.3203 18.8359 53.1641C19.1901 53.0026 19.4948 52.7604 19.75 52.4375L20.8438 53.625C20.6667 53.8802 20.4245 54.125 20.1172 54.3594C19.8151 54.5938 19.4505 54.7865 19.0234 54.9375C18.5964 55.0833 18.1094 55.1562 17.5625 55.1562ZM24.5625 48.3906V55H22.3125V46.5469H24.4297L24.5625 48.3906ZM27.1094 46.4922L27.0703 48.5781C26.9609 48.5625 26.8281 48.5495 26.6719 48.5391C26.5208 48.5234 26.3828 48.5156 26.2578 48.5156C25.9401 48.5156 25.6641 48.5573 25.4297 48.6406C25.2005 48.7188 25.0078 48.8359 24.8516 48.9922C24.7005 49.1484 24.5859 49.3385 24.5078 49.5625C24.4349 49.7865 24.3932 50.0417 24.3828 50.3281L23.9297 50.1875C23.9297 49.6406 23.9844 49.138 24.0938 48.6797C24.2031 48.2161 24.362 47.8125 24.5703 47.4688C24.7839 47.125 25.0443 46.8594 25.3516 46.6719C25.6589 46.4844 26.0104 46.3906 26.4062 46.3906C26.5312 46.3906 26.6589 46.401 26.7891 46.4219C26.9193 46.4375 27.026 46.4609 27.1094 46.4922ZM32.7031 46.5469V48.1406H27.7812V46.5469H32.7031ZM29 44.4609H31.25V52.4531C31.25 52.6979 31.2812 52.8854 31.3438 53.0156C31.4115 53.1458 31.5104 53.237 31.6406 53.2891C31.7708 53.3359 31.9349 53.3594 32.1328 53.3594C32.2734 53.3594 32.3984 53.3542 32.5078 53.3438C32.6224 53.3281 32.7188 53.3125 32.7969 53.2969L32.8047 54.9531C32.612 55.0156 32.4036 55.0651 32.1797 55.1016C31.9557 55.138 31.7083 55.1562 31.4375 55.1562C30.9427 55.1562 30.5104 55.0755 30.1406 54.9141C29.776 54.7474 29.4948 54.4818 29.2969 54.1172C29.099 53.7526 29 53.2734 29 52.6797V44.4609ZM38.5547 52.6641C38.5547 52.5026 38.5078 52.3568 38.4141 52.2266C38.3203 52.0964 38.1458 51.9766 37.8906 51.8672C37.6406 51.7526 37.2786 51.6484 36.8047 51.5547C36.3776 51.4609 35.9792 51.3438 35.6094 51.2031C35.2448 51.0573 34.9271 50.8828 34.6562 50.6797C34.3906 50.4766 34.1823 50.237 34.0312 49.9609C33.8802 49.6797 33.8047 49.3594 33.8047 49C33.8047 48.6458 33.8802 48.3125 34.0312 48C34.1875 47.6875 34.4089 47.4115 34.6953 47.1719C34.987 46.9271 35.3411 46.737 35.7578 46.6016C36.1797 46.4609 36.6536 46.3906 37.1797 46.3906C37.9141 46.3906 38.5443 46.5078 39.0703 46.7422C39.6016 46.9766 40.0078 47.2995 40.2891 47.7109C40.5755 48.1172 40.7188 48.5807 40.7188 49.1016H38.4688C38.4688 48.8828 38.4219 48.6875 38.3281 48.5156C38.2396 48.3385 38.099 48.2005 37.9062 48.1016C37.7188 47.9974 37.474 47.9453 37.1719 47.9453C36.9219 47.9453 36.7057 47.9896 36.5234 48.0781C36.3411 48.1615 36.2005 48.276 36.1016 48.4219C36.0078 48.5625 35.9609 48.7188 35.9609 48.8906C35.9609 49.0208 35.987 49.138 36.0391 49.2422C36.0964 49.3411 36.1875 49.4323 36.3125 49.5156C36.4375 49.599 36.599 49.6771 36.7969 49.75C37 49.8177 37.25 49.8802 37.5469 49.9375C38.1562 50.0625 38.7005 50.2266 39.1797 50.4297C39.6589 50.6276 40.0391 50.8984 40.3203 51.2422C40.6016 51.5807 40.7422 52.026 40.7422 52.5781C40.7422 52.9531 40.6589 53.2969 40.4922 53.6094C40.3255 53.9219 40.0859 54.1953 39.7734 54.4297C39.4609 54.6589 39.0859 54.8385 38.6484 54.9688C38.2161 55.0938 37.7292 55.1562 37.1875 55.1562C36.401 55.1562 35.7344 55.0156 35.1875 54.7344C34.6458 54.4531 34.2344 54.0964 33.9531 53.6641C33.6771 53.2266 33.5391 52.7786 33.5391 52.3203H35.6719C35.6823 52.6276 35.7604 52.875 35.9062 53.0625C36.0573 53.25 36.2474 53.3854 36.4766 53.4688C36.7109 53.5521 36.9635 53.5938 37.2344 53.5938C37.526 53.5938 37.7682 53.5547 37.9609 53.4766C38.1536 53.3932 38.2995 53.2839 38.3984 53.1484C38.5026 53.0078 38.5547 52.8464 38.5547 52.6641Z" fill="white"/>
<path d="M10.3125 14.771C10.3125 8.86846 15.0975 4.0835 21 4.0835C26.9025 4.0835 31.6875 8.86845 31.6875 14.771V23.6946C31.6875 24.523 31.0159 25.1946 30.1875 25.1946H11.8125C10.9841 25.1946 10.3125 24.523 10.3125 23.6946V14.771Z" stroke="white" stroke-width="3"/>
<ellipse cx="21" cy="2.58333" rx="2.8125" ry="2.58333" fill="white"/>
<ellipse cx="8.8125" cy="24.1112" rx="2.8125" ry="2.58333" fill="white"/>
<ellipse cx="33.1875" cy="24.1112" rx="2.8125" ry="2.58333" fill="white"/>
<path d="M17.8125 25.6113H24.1875V27.0002C24.1875 28.3809 23.0682 29.5002 21.6875 29.5002H20.3125C18.9318 29.5002 17.8125 28.3809 17.8125 27.0002V25.6113Z" stroke="white" stroke-width="3"/>
<circle cx="33" cy="7" r="5" fill="#FF0505"/>
</svg>

<svg width="42" height="54" fill="none" xmlns="http://www.w3.org/2000/svg"><path d="M5.438 53.094v-3.766c0-.27-.045-.503-.133-.695a.988.988 0 0 0-.414-.461c-.183-.11-.42-.164-.711-.164-.25 0-.466.044-.649.133a.94.94 0 0 0-.422.367 1.015 1.015 0 0 0-.148.554H.71c0-.359.083-.7.25-1.023a2.55 2.55 0 0 1 .727-.852c.317-.25.695-.445 1.132-.585.443-.141.938-.211 1.485-.211.656 0 1.24.109 1.75.328.51.218.911.547 1.203.984.297.438.445.984.445 1.64v3.618c0 .464.029.844.086 1.14.057.292.14.547.25.766V55H5.766a3.25 3.25 0 0 1-.25-.86 7.082 7.082 0 0 1-.079-1.046zm.296-3.242.016 1.273H4.492c-.297 0-.554.034-.773.102a1.44 1.44 0 0 0-.54.289c-.14.12-.244.26-.312.422a1.46 1.46 0 0 0-.094.53c0 .193.045.368.133.524.089.151.216.271.383.36.167.083.362.125.586.125.339 0 .633-.068.883-.204.25-.135.443-.302.578-.5.14-.198.213-.385.219-.562l.593.953a3.859 3.859 0 0 1-.343.664c-.14.23-.32.445-.54.649a2.783 2.783 0 0 1-.788.492c-.308.125-.672.187-1.094.187a3.285 3.285 0 0 1-1.461-.32 2.663 2.663 0 0 1-1.031-.898 2.359 2.359 0 0 1-.375-1.313c0-.443.083-.836.25-1.18.166-.343.411-.633.734-.867.328-.24.737-.42 1.227-.539.49-.125 1.057-.187 1.703-.187h1.304zM11.813 43v12H9.555V43h2.258zm5.75 12.156c-.657 0-1.245-.104-1.766-.312a3.876 3.876 0 0 1-1.328-.883 3.923 3.923 0 0 1-.828-1.305 4.393 4.393 0 0 1-.29-1.593v-.313c0-.64.092-1.227.274-1.758.182-.531.443-.992.781-1.383.344-.39.76-.69 1.25-.898.49-.214 1.042-.32 1.656-.32.6 0 1.13.099 1.594.297.464.197.852.479 1.164.843.318.365.558.802.72 1.313.16.505.241 1.067.241 1.687v.938h-6.718v-1.5h4.507v-.172a1.95 1.95 0 0 0-.172-.836 1.326 1.326 0 0 0-.5-.594c-.224-.146-.51-.219-.859-.219-.297 0-.552.066-.766.196a1.51 1.51 0 0 0-.523.547c-.13.234-.23.51-.297.828a5.267 5.267 0 0 0-.094 1.031v.313c0 .338.047.65.141.937.099.286.237.534.414.742.182.209.401.37.656.485.26.114.555.171.883.171a2.74 2.74 0 0 0 1.133-.234c.354-.161.659-.404.914-.727l1.094 1.188c-.177.255-.42.5-.727.734a3.879 3.879 0 0 1-1.094.578 4.511 4.511 0 0 1-1.46.22zm7-6.765V55h-2.25v-8.453h2.117l.133 1.844zm2.546-1.899-.039 2.086a5.448 5.448 0 0 0-.398-.039 4.033 4.033 0 0 0-.414-.023c-.318 0-.594.041-.828.125-.23.078-.422.195-.578.351a1.533 1.533 0 0 0-.344.57c-.073.224-.115.48-.125.766l-.453-.14c0-.547.054-1.05.164-1.508.11-.464.268-.867.476-1.211.214-.344.474-.61.782-.797a1.984 1.984 0 0 1 1.054-.281c.125 0 .253.01.383.03.13.017.237.04.32.071zm5.594.055v1.594h-4.922v-1.594h4.922zM29 44.46h2.25v7.992c0 .245.031.432.094.563.067.13.166.221.297.273.13.047.294.07.492.07.14 0 .265-.005.375-.015.114-.016.21-.032.289-.047l.008 1.656a4.234 4.234 0 0 1-.625.149 4.644 4.644 0 0 1-.742.054c-.495 0-.928-.08-1.297-.242a1.786 1.786 0 0 1-.844-.797c-.198-.364-.297-.844-.297-1.437v-8.22zm9.555 8.203a.731.731 0 0 0-.14-.437c-.095-.13-.27-.25-.524-.36-.25-.114-.612-.219-1.086-.312a8.466 8.466 0 0 1-1.196-.352 4.147 4.147 0 0 1-.953-.523 2.276 2.276 0 0 1-.625-.72 1.999 1.999 0 0 1-.226-.96c0-.354.075-.688.226-1a2.58 2.58 0 0 1 .664-.828 3.142 3.142 0 0 1 1.063-.57 4.48 4.48 0 0 1 1.422-.211c.734 0 1.364.117 1.89.351.532.235.938.558 1.22.969.285.406.429.87.429 1.39h-2.25c0-.218-.047-.413-.14-.585a.927.927 0 0 0-.423-.414c-.187-.105-.432-.157-.734-.157-.25 0-.466.045-.649.133a.994.994 0 0 0-.421.344.826.826 0 0 0-.141.469c0 .13.026.247.078.351.057.1.148.19.273.274.126.083.287.161.485.234.203.068.453.13.75.188.61.124 1.154.289 1.633.492.479.198.86.468 1.14.812.282.339.422.784.422 1.336 0 .375-.083.719-.25 1.031a2.49 2.49 0 0 1-.719.82c-.312.23-.687.41-1.125.54-.432.125-.919.187-1.46.187-.787 0-1.454-.14-2-.422-.542-.28-.954-.638-1.235-1.07-.276-.437-.414-.885-.414-1.344h2.133c.01.308.088.555.234.742.151.188.341.323.57.407.235.083.488.125.758.125.292 0 .534-.04.727-.117.193-.084.339-.193.437-.329a.792.792 0 0 0 .157-.484z" fill="#fff"/><path d="M10.313 14.771c0-5.903 4.784-10.688 10.687-10.688 5.902 0 10.688 4.785 10.688 10.688v8.924a1.5 1.5 0 0 1-1.5 1.5H11.813a1.5 1.5 0 0 1-1.5-1.5V14.77z" stroke="#fff" stroke-width="3"/><ellipse cx="21" cy="2.583" rx="2.813" ry="2.583" fill="#fff"/><ellipse cx="8.813" cy="24.111" rx="2.813" ry="2.583" fill="#fff"/><ellipse cx="33.188" cy="24.111" rx="2.813" ry="2.583" fill="#fff"/><path d="M17.813 25.611h6.375v1.39a2.5 2.5 0 0 1-2.5 2.5h-1.375a2.5 2.5 0 0 1-2.5-2.5v-1.39z" stroke="#fff" stroke-width="3"/><circle cx="33" cy="7" r="5" fill="#FF0505"/></svg>
